app/component-library/components/Icons/Icon/assets/security-time.svg

<svg width="24" height="24" viewBox="0 0 24 24" fill="none" xmlns="http://www.w3.org/2000/svg">
<path d="M12.2808 8.25C10.4908 8.25 9.03076 9.71 9.03076 11.5C9.03076 13.29 10.4908 14.75 12.2808 14.75C14.0708 14.75 15.5308 13.29 15.5308 11.5C15.5308 9.71 14.0708 8.25 12.2808 8.25ZM13.2808 11.18C13.2808 11.79 12.9508 12.37 12.4308 12.68L11.6608 13.14C11.5408 13.21 11.4108 13.25 11.2708 13.25C11.0208 13.25 10.7708 13.12 10.6308 12.89C10.4208 12.53 10.5308 12.07 10.8908 11.86L11.6508 11.4C11.7308 11.35 11.7708 11.27 11.7708 11.19V10.26C11.7708 9.85 12.1108 9.51 12.5208 9.51C12.9308 9.51 13.2808 9.84 13.2808 10.25V11.18Z" fill="currentColor"/>
<path d="M18.8206 4.17014L13.3206 2.11014C12.7506 1.90014 11.8206 1.90014 11.2506 2.11014L5.75057 4.17014C4.69057 4.57014 3.83057 5.81014 3.83057 6.94014V15.0401C3.83057 15.8501 4.36057 16.9201 5.01057 17.4001L10.5106 21.5101C11.4806 22.2401 13.0706 22.2401 14.0406 21.5101L19.5406 17.4001C20.1906 16.9101 20.7206 15.8501 20.7206 15.0401V6.94014C20.7306 5.81014 19.8706 4.57014 18.8206 4.17014ZM12.2806 16.2501C9.66057 16.2501 7.53057 14.1201 7.53057 11.5001C7.53057 8.88014 9.66057 6.75014 12.2806 6.75014C14.9006 6.75014 17.0306 8.88014 17.0306 11.5001C17.0306 14.1201 14.9006 16.2501 12.2806 16.2501Z" fill="currentColor"/>
</svg>

<svg xmlns="http://www.w3.org/2000/svg" width="24" height="24" viewBox="0 0 24 24" fill="none"><path fill="currentColor" d="M12.28 8.25c-1.79 0-3.25 1.46-3.25 3.25s1.46 3.25 3.25 3.25 3.25-1.46 3.25-3.25-1.46-3.25-3.25-3.25Zm1 2.93c0 .61-.33 1.19-.85 1.5l-.77.46c-.12.07-.25.11-.39.11-.25 0-.5-.13-.64-.36-.21-.36-.1-.82.26-1.03l.76-.46c.08-.05.12-.13.12-.21v-.93a.755.755 0 0 1 1.51-.01v.93Z"/><path fill="currentColor" d="m18.82 4.17-5.5-2.06c-.57-.21-1.5-.21-2.07 0l-5.5 2.06c-1.06.4-1.92 1.64-1.92 2.77v8.1c0 .81.53 1.88 1.18 2.36l5.5 4.11c.97.73 2.56.73 3.53 0l5.5-4.11c.65-.49 1.18-1.55 1.18-2.36v-8.1c.01-1.13-.85-2.37-1.9-2.77Zm-6.54 12.08c-2.62 0-4.75-2.13-4.75-4.75s2.13-4.75 4.75-4.75 4.75 2.13 4.75 4.75-2.13 4.75-4.75 4.75Z"/></svg>
